packages/fxa-payments-server/src/images/paypal.svg

<svg width="91" height="24" viewBox="0 0 91 24" fill="none" xmlns="http://www.w3.org/2000/svg">
<path d="M33.6079 4.90845H28.6341C28.4694 4.90834 28.3101 4.96705 28.1849 5.07399C28.0597 5.18093 27.9768 5.32907 27.9512 5.49172L25.9395 18.2459C25.9303 18.3051 25.934 18.3656 25.9504 18.4232C25.9667 18.4808 25.9954 18.5342 26.0344 18.5797C26.0734 18.6252 26.1217 18.6617 26.1762 18.6866C26.2306 18.7116 26.2898 18.7245 26.3497 18.7244H28.7243C28.889 18.7245 29.0484 18.6657 29.1736 18.5586C29.2988 18.4515 29.3817 18.3032 29.4072 18.1404L29.9497 14.7004C29.9752 14.5378 30.0579 14.3896 30.183 14.2825C30.3081 14.1754 30.4673 14.1165 30.6319 14.1164H32.2065C35.4828 14.1164 37.3737 12.531 37.8675 9.38917C38.0901 8.01463 37.877 6.93463 37.2334 6.17827C36.5265 5.34772 35.2726 4.90845 33.6079 4.90845ZM34.1817 9.56663C33.9097 11.3514 32.5461 11.3514 31.2275 11.3514H30.477L31.0035 8.01827C31.019 7.92075 31.0687 7.83194 31.1437 7.76781C31.2188 7.70368 31.3143 7.66845 31.413 7.66845H31.757C32.6552 7.66845 33.5024 7.66845 33.9403 8.18045C34.2014 8.4859 34.2814 8.93972 34.1817 9.56663ZM48.4755 9.50917H46.0937C45.995 9.50918 45.8995 9.54441 45.8245 9.60854C45.7494 9.67267 45.6997 9.76148 45.6843 9.85899L45.5788 10.5252L45.4123 10.2837C44.8966 9.53536 43.7468 9.28517 42.5992 9.28517C39.9672 9.28517 37.7192 11.2786 37.2814 14.075C37.0537 15.4699 37.3774 16.8037 38.1686 17.7339C38.8945 18.5892 39.933 18.9455 41.1686 18.9455C43.2894 18.9455 44.4654 17.5819 44.4654 17.5819L44.3592 18.2437C44.3497 18.3029 44.3532 18.3634 44.3694 18.4211C44.3856 18.4788 44.4141 18.5323 44.4529 18.5779C44.4918 18.6236 44.54 18.6602 44.5944 18.6854C44.6488 18.7106 44.708 18.7236 44.7679 18.7237H46.9134C47.0781 18.7238 47.2375 18.665 47.3627 18.5579C47.4879 18.4508 47.5708 18.3025 47.5963 18.1397L48.8835 9.98772C48.893 9.92868 48.8896 9.86829 48.8734 9.81071C48.8573 9.75314 48.8288 9.69976 48.79 9.65426C48.7512 9.60875 48.703 9.57222 48.6487 9.54717C48.5944 9.52212 48.5353 9.50916 48.4755 9.50917ZM45.1555 14.1448C44.9257 15.5055 43.8457 16.419 42.4683 16.419C41.7766 16.419 41.2239 16.1972 40.869 15.7768C40.517 15.3594 40.3832 14.7652 40.4952 14.1034C40.7097 12.7543 41.8079 11.811 43.1643 11.811C43.8406 11.811 44.3905 12.0357 44.7526 12.4597C45.1155 12.8881 45.2595 13.4859 45.1555 14.1448ZM61.1606 9.50917H58.7672C58.6543 9.50935 58.5432 9.53707 58.4434 9.58992C58.3437 9.64277 58.2584 9.71915 58.1948 9.81245L54.8937 14.675L53.4945 10.0023C53.4515 9.85975 53.3638 9.73485 53.2444 9.64604C53.1249 9.55724 52.98 9.50925 52.8312 9.50917H50.4792C50.4132 9.509 50.3481 9.5246 50.2893 9.55467C50.2305 9.58473 50.1798 9.62841 50.1413 9.68205C50.1028 9.73569 50.0777 9.79775 50.068 9.86306C50.0583 9.92838 50.0644 9.99505 50.0857 10.0575L52.7221 17.7943L50.2435 21.2932C50.1995 21.3552 50.1734 21.4282 50.168 21.5041C50.1627 21.58 50.1783 21.6559 50.2133 21.7235C50.2482 21.7911 50.301 21.8477 50.366 21.8873C50.431 21.9268 50.5056 21.9478 50.5817 21.9477H52.9723C53.0839 21.9479 53.1939 21.921 53.2928 21.8693C53.3917 21.8176 53.4766 21.7427 53.5403 21.651L61.501 10.1601C61.5441 10.0979 61.5695 10.0251 61.5742 9.94959C61.5789 9.87407 61.5629 9.79869 61.5278 9.73163C61.4927 9.66457 61.44 9.60839 61.3753 9.56917C61.3105 9.52996 61.2363 9.50921 61.1606 9.50917Z" fill="#253B80"/>
<path d="M69.0851 4.90844H64.1105C63.946 4.90851 63.7869 4.9673 63.6618 5.07422C63.5368 5.18115 63.454 5.32919 63.4283 5.49171L61.4167 18.2459C61.4074 18.305 61.4109 18.3654 61.4272 18.423C61.4434 18.4805 61.4719 18.5339 61.5108 18.5794C61.5496 18.6249 61.5979 18.6614 61.6522 18.6864C61.7065 18.7115 61.7656 18.7244 61.8254 18.7244H64.3782C64.4933 18.7243 64.6047 18.683 64.6921 18.6081C64.7796 18.5332 64.8374 18.4295 64.8553 18.3157L65.4262 14.7004C65.4516 14.5378 65.5344 14.3896 65.6594 14.2825C65.7845 14.1754 65.9437 14.1165 66.1084 14.1164H67.6822C70.9593 14.1164 72.8494 12.531 73.344 9.38917C73.5673 8.01462 73.3527 6.93462 72.7091 6.17826C72.0029 5.34771 70.7498 4.90844 69.0851 4.90844ZM69.6589 9.56662C69.3876 11.3514 68.024 11.3514 66.7047 11.3514H65.9549L66.4822 8.01826C66.4973 7.92074 66.5468 7.83186 66.6218 7.76769C66.6968 7.70353 66.7922 7.66832 66.8909 7.66844H67.2349C68.1323 7.66844 68.9803 7.66844 69.4182 8.18044C69.6793 8.4859 69.7585 8.93971 69.6589 9.56662ZM83.952 9.50917H81.5716C81.4729 9.5089 81.3774 9.54405 81.3024 9.60825C81.2274 9.67244 81.1779 9.76141 81.1629 9.85899L81.0574 10.5252L80.8902 10.2837C80.3745 9.53535 79.2254 9.28517 78.0778 9.28517C75.4458 9.28517 73.1985 11.2786 72.7607 14.075C72.5338 15.4699 72.856 16.8037 73.6473 17.7339C74.3745 18.5892 75.4116 18.9455 76.6473 18.9455C78.768 18.9455 79.944 17.5819 79.944 17.5819L79.8378 18.2437C79.8283 18.303 79.8318 18.3637 79.8481 18.4215C79.8644 18.4793 79.893 18.5328 79.932 18.5785C79.971 18.6241 80.0195 18.6608 80.074 18.6858C80.1286 18.7109 80.1879 18.7238 80.248 18.7237H82.3927C82.5574 18.7236 82.7165 18.6647 82.8416 18.5577C82.9667 18.4506 83.0494 18.3024 83.0749 18.1397L84.3629 9.98771C84.372 9.92849 84.3682 9.86799 84.3518 9.81037C84.3353 9.75275 84.3066 9.69937 84.2675 9.65391C84.2285 9.60845 84.1801 9.57197 84.1256 9.54698C84.0711 9.522 84.0119 9.5091 83.952 9.50917ZM80.632 14.1448C80.4036 15.5055 79.3222 16.419 77.9447 16.419C77.2545 16.419 76.7003 16.1972 76.3454 15.7768C75.9934 15.3594 75.8611 14.7652 75.9716 14.1034C76.1876 12.7543 77.2843 11.811 78.6407 11.811C79.3171 11.811 79.8669 12.0357 80.2291 12.4597C80.5934 12.8881 80.7374 13.4859 80.632 14.1448ZM86.76 5.25826L84.7185 18.2459C84.7092 18.305 84.7127 18.3654 84.729 18.423C84.7452 18.4805 84.7737 18.5339 84.8126 18.5794C84.8514 18.6249 84.8997 18.6614 84.954 18.6864C85.0083 18.7115 85.0674 18.7244 85.1273 18.7244H87.1796C87.5207 18.7244 87.8102 18.4772 87.8625 18.1404L89.8756 5.38699C89.885 5.32787 89.8814 5.26743 89.8652 5.20982C89.8489 5.15222 89.8204 5.09881 89.7816 5.05327C89.7427 5.00773 89.6945 4.97114 89.6402 4.94601C89.5859 4.92089 89.5267 4.90782 89.4669 4.90771H87.1687C87.07 4.90806 86.9747 4.94353 86.8998 5.00777C86.8249 5.072 86.7754 5.1608 86.76 5.25826Z" fill="#179BD7"/>
<path d="M5.28446 21.2028L5.66482 18.7868L4.81755 18.7672H0.771729L3.58336 0.939541C3.59174 0.88507 3.6194 0.83542 3.66132 0.799642C3.70324 0.763864 3.75662 0.744342 3.81173 0.744632H10.6335C12.8983 0.744632 14.4612 1.2159 15.2772 2.14609C15.6597 2.58245 15.9034 3.03845 16.0212 3.54027C16.1448 4.06681 16.147 4.6959 16.0263 5.46318L16.0175 5.51918V6.01081L16.4001 6.22754C16.6921 6.3755 16.9546 6.57564 17.1746 6.81809C17.5019 7.19118 17.7135 7.66536 17.803 8.22754C17.8954 8.80572 17.8648 9.49372 17.7135 10.2726C17.539 11.1686 17.2568 11.949 16.8757 12.5875C16.5395 13.1596 16.0874 13.655 15.5485 14.0421C15.0423 14.4014 14.4408 14.6741 13.7608 14.8486C13.1019 15.0203 12.3506 15.1068 11.5266 15.1068H10.9957C10.6161 15.1068 10.2474 15.2435 9.95791 15.4886C9.66887 15.7363 9.47712 16.0786 9.41682 16.4545L9.37682 16.6719L8.70482 20.9301L8.67427 21.0865C8.66627 21.1359 8.65246 21.1606 8.63209 21.1774C8.61237 21.1935 8.58775 21.2025 8.56227 21.2028H5.28446Z" fill="#253B80"/>
<path d="M16.7623 5.57593C16.7419 5.70611 16.7187 5.8392 16.6925 5.97593C15.7928 10.5948 12.715 12.1905 8.78411 12.1905H6.78266C6.30193 12.1905 5.89684 12.5396 5.82193 13.0137L4.7972 19.5127L4.50702 21.3548C4.49546 21.4279 4.49987 21.5026 4.51996 21.5738C4.54004 21.645 4.57531 21.711 4.62335 21.7673C4.67139 21.8236 4.73105 21.8687 4.79823 21.8997C4.8654 21.9307 4.93849 21.9468 5.01248 21.9468H8.56229C8.98266 21.9468 9.33975 21.6414 9.40593 21.2268L9.44084 21.0465L10.1092 16.805L10.1521 16.5723C10.2176 16.1563 10.5754 15.8508 10.9957 15.8508H11.5267C14.9659 15.8508 17.6583 14.4545 18.4452 10.4137C18.7739 8.72575 18.6037 7.31629 17.7339 6.32502C17.4582 6.01837 17.129 5.76453 16.7623 5.57593Z" fill="#179BD7"/>
<path d="M15.8211 5.20061C15.5338 5.11751 15.2416 5.05266 14.9461 5.00643C14.3624 4.91671 13.7724 4.87367 13.1818 4.8777H7.83487C7.63138 4.87754 7.43455 4.95019 7.27996 5.08251C7.12537 5.21482 7.02321 5.39808 6.99196 5.59916L5.8545 12.8035L5.82178 13.0137C5.85721 12.7844 5.97356 12.5753 6.14978 12.4243C6.326 12.2733 6.55044 12.1903 6.7825 12.1904H8.78396C12.7149 12.1904 15.7927 10.5941 16.6923 5.97588C16.7192 5.83916 16.7418 5.70606 16.7621 5.57588C16.5247 5.45139 16.2773 5.34703 16.0225 5.26388C15.9557 5.24172 15.8885 5.22062 15.8211 5.20061Z" fill="#222D65"/>
<path d="M6.99193 5.59927C7.02292 5.39814 7.12502 5.2148 7.27969 5.08255C7.43436 4.9503 7.63134 4.87791 7.83484 4.87855H13.1818C13.8152 4.87855 14.4065 4.92 14.9461 5.00727C15.3113 5.06466 15.6714 5.1505 16.0232 5.264C16.2887 5.352 16.5352 5.456 16.7628 5.576C17.0305 3.86909 16.7607 2.70691 15.8378 1.65455C14.8203 0.496 12.9839 0 10.6341 0H3.8123C3.3323 0 2.92284 0.349091 2.84866 0.824L0.00720706 18.8349C-0.00602796 18.9185 -0.000992484 19.004 0.0219671 19.0855C0.0449267 19.167 0.0852655 19.2426 0.140209 19.307C0.195152 19.3714 0.263396 19.4231 0.340245 19.4586C0.417095 19.4942 0.500727 19.5126 0.585389 19.5127H4.79703L5.85448 12.8036L6.99193 5.59927Z" fill="#253B80"/>
</svg>

<svg width="91" height="24" fill="none" xmlns="http://www.w3.org/2000/svg"><path d="M33.608 4.908h-4.974a.69.69 0 00-.683.584L25.94 18.246a.415.415 0 00.41.478h2.375a.69.69 0 00.683-.584l.543-3.44a.691.691 0 01.682-.584h1.574c3.277 0 5.168-1.585 5.661-4.727.223-1.374.01-2.454-.634-3.21-.706-.831-1.96-1.27-3.625-1.27zm.574 4.659c-.272 1.784-1.636 1.784-2.955 1.784h-.75l.526-3.333a.415.415 0 01.41-.35h.344c.898 0 1.745 0 2.183.512.261.306.341.76.242 1.387zm14.293-.058h-2.381a.414.414 0 00-.41.35l-.105.666-.167-.241c-.515-.749-1.665-.999-2.813-.999-2.632 0-4.88 1.994-5.318 4.79-.227 1.395.096 2.729.888 3.659.726.855 1.764 1.211 3 1.211 2.12 0 3.296-1.363 3.296-1.363l-.106.662a.414.414 0 00.409.48h2.145a.69.69 0 00.683-.584l1.288-8.152a.412.412 0 00-.409-.479zm-3.32 4.636c-.23 1.36-1.31 2.274-2.687 2.274-.691 0-1.244-.222-1.599-.642-.352-.418-.486-1.012-.374-1.674.215-1.349 1.313-2.292 2.67-2.292.676 0 1.226.225 1.588.649.362.428.507 1.026.403 1.685zm16.006-4.636h-2.394a.694.694 0 00-.572.303l-3.301 4.863-1.4-4.673a.694.694 0 00-.663-.493H50.48a.415.415 0 00-.393.548l2.636 7.737-2.479 3.5a.415.415 0 00.339.654h2.39a.69.69 0 00.568-.297l7.961-11.49a.415.415 0 00-.34-.652z" fill="#253B80"/><path d="M69.085 4.908h-4.974a.691.691 0 00-.683.584l-2.011 12.754a.414.414 0 00.408.478h2.553a.483.483 0 00.477-.408l.571-3.616a.69.69 0 01.682-.584h1.574c3.277 0 5.167-1.585 5.662-4.727.223-1.374.009-2.454-.635-3.21-.706-.831-1.96-1.27-3.624-1.27zm.574 4.659c-.271 1.784-1.635 1.784-2.954 1.784h-.75l.527-3.333a.413.413 0 01.409-.35h.344c.897 0 1.745 0 2.183.512.261.306.34.76.24 1.387zm14.293-.058h-2.38a.412.412 0 00-.41.35l-.105.666-.167-.241c-.516-.749-1.665-.999-2.812-.999-2.632 0-4.88 1.994-5.317 4.79-.227 1.395.095 2.729.886 3.659.727.855 1.765 1.211 3 1.211 2.121 0 3.297-1.363 3.297-1.363l-.106.662a.414.414 0 00.41.48h2.145a.691.691 0 00.682-.584l1.288-8.152a.417.417 0 00-.411-.479zm-3.32 4.636c-.228 1.36-1.31 2.274-2.687 2.274-.69 0-1.245-.222-1.6-.642-.352-.418-.484-1.012-.373-1.674.216-1.349 1.312-2.292 2.669-2.292.676 0 1.226.225 1.588.649.364.428.508 1.026.403 1.685zm6.128-8.887l-2.041 12.988a.414.414 0 00.408.478h2.053a.69.69 0 00.682-.584l2.014-12.753a.414.414 0 00-.41-.48H87.17a.415.415 0 00-.409.351z" fill="#179BD7"/><path d="M5.284 21.203l.38-2.416-.846-.02H.772L3.583.94a.23.23 0 01.229-.195h6.822c2.264 0 3.827.47 4.643 1.401.383.436.626.892.744 1.394.124.527.126 1.156.005 1.923l-.009.056v.492l.383.217c.292.147.555.348.775.59.327.373.538.847.628 1.41.092.578.062 1.266-.09 2.045-.174.896-.456 1.676-.837 2.315a4.761 4.761 0 01-1.328 1.454 5.384 5.384 0 01-1.787.807c-.66.171-1.41.258-2.234.258h-.531c-.38 0-.749.136-1.038.382-.29.247-.48.59-.541.965l-.04.218-.672 4.258-.03.157c-.009.049-.023.074-.043.09a.113.113 0 01-.07.026H5.284z" fill="#253B80"/><path d="M16.762 5.576c-.02.13-.043.263-.07.4-.9 4.619-3.977 6.215-7.908 6.215H6.783c-.481 0-.886.349-.961.823l-1.025 6.499-.29 1.842a.512.512 0 00.505.592h3.55c.42 0 .778-.306.844-.72l.035-.18.668-4.242.043-.233a.854.854 0 01.844-.721h.53c3.44 0 6.132-1.397 6.92-5.437.328-1.688.158-3.098-.712-4.089a3.394 3.394 0 00-.972-.75z" fill="#179BD7"/><path d="M15.821 5.2a7.097 7.097 0 00-.875-.194 11.114 11.114 0 00-1.764-.128H7.835a.852.852 0 00-.843.721l-1.138 7.204-.032.21a.972.972 0 01.96-.823h2.002c3.93 0 7.009-1.596 7.908-6.214.027-.137.05-.27.07-.4a4.797 4.797 0 00-.94-.375z" fill="#222D65"/><path d="M6.992 5.6a.85.85 0 01.843-.721h5.347c.633 0 1.224.041 1.764.128.365.058.725.144 1.077.257.266.088.512.192.74.312.267-1.707-.002-2.87-.925-3.921C14.82.496 12.984 0 10.634 0H3.812c-.48 0-.89.35-.963.824L.007 18.834a.586.586 0 00.578.679h4.212l1.057-6.71L6.992 5.6z" fill="#253B80"/></svg>
